epam-assets/icon-sources/18/synchronization_off.svg

<svg width="18" height="18" viewBox="0 0 18 18" fill="none" xmlns="http://www.w3.org/2000/svg">
<g id="18/synchronization_off" clip-path="url(#clip0_16848_31595)">
<path id="icon" fill-rule="evenodd" clip-rule="evenodd" d="M5.37891 4.21946L8.43605 0.725586L9.56492 1.71334L7.94671 3.56272C8.8651 3.39888 9.81262 3.45088 10.7132 3.7191C11.442 3.93617 12.119 4.2886 12.7107 4.75415L15 2.71924L15.9965 3.84035L13.7656 5.82341C14.4372 6.70119 14.8543 7.74883 14.9685 8.85123C15.0908 10.0316 14.8603 11.2217 14.3062 12.2711L12.9798 11.5707C13.3954 10.7837 13.5682 9.89107 13.4765 9.00579C13.3947 8.21578 13.1054 7.46327 12.6404 6.82356L5.94602 12.7742C6.39987 13.1935 6.93725 13.5168 7.52604 13.7209C8.1361 13.9324 8.78196 14.0093 9.41973 13.9495L7.71967 12.2495L8.78033 11.1888L12.3107 14.7191L8.78033 18.2495L7.71967 17.1888L9.45675 15.4517C8.63992 15.5141 7.81534 15.4088 7.03472 15.1381C6.20279 14.8497 5.44784 14.383 4.82084 13.7743L2.49655 15.8404L1.5 14.7192L3.88252 12.6014C3.39886 11.8113 3.10311 10.917 3.02248 9.98792C2.9223 8.83375 3.15841 7.67525 3.70229 6.65234L5.02672 7.35654C4.61881 8.12372 4.44173 8.99259 4.51686 9.85822C4.56948 10.4645 4.74423 11.051 5.02768 11.5835L11.5655 5.7721C11.1761 5.5019 10.7442 5.29347 10.285 5.15669C9.57573 4.94544 8.82761 4.91302 8.10675 5.05911L9.56492 6.72559L8.43605 7.71334L5.37891 4.21946ZM7.38268 4.2316L7.37714 4.21366L7.37206 4.21946L7.38268 4.2316Z" fill="#6C6F80"/>
</g>
<defs>
<clipPath id="clip0_16848_31595">
<rect width="18" height="18" fill="white"/>
</clipPath>
</defs>
</svg>

<svg xmlns="http://www.w3.org/2000/svg" width="18" height="18" fill="none" viewBox="0 0 18 18">
  <g clip-path="url(#a)">
    <path fill="#6C6F80" fill-rule="evenodd" d="M5.379 4.22 8.436.725l1.129.987-1.618 1.85a6 6 0 0 1 4.764 1.191L15 2.72l.996 1.121-2.23 1.983a6 6 0 0 1 .54 6.448l-1.326-.7a4.5 4.5 0 0 0-.34-4.747l-6.694 5.95A4.5 4.5 0 0 0 9.42 13.95l-1.7-1.7 1.06-1.061 3.53 3.53-3.53 3.53-1.06-1.06 1.737-1.737a5.998 5.998 0 0 1-4.636-1.678L2.497 15.84 1.5 14.72l2.383-2.12a6 6 0 0 1-.18-5.949l1.324.705a4.5 4.5 0 0 0 0 4.227l6.538-5.812a4.499 4.499 0 0 0-3.458-.713l1.458 1.667-1.129.987L5.379 4.22Zm2.004.012-.006-.018-.005.005.01.013Z" clip-rule="evenodd"/>
  </g>
  <defs>
    <clipPath id="a">
      <path fill="#fff" d="M0 0h18v18H0z"/>
    </clipPath>
  </defs>
</svg>
